X:1
T:Title
%%score 1 2
L:1/8
Q:1/4=92
M:3/4
K:Bb
V:1 treble nm="Grand Piano, Soprano"
V:2 bass nm="Choir Pad, Lucca, 88.87 D"
V:1
 [B,D]>[CE] [DF]>[EG] [DF]2 | [FB]2 [EB]2 [EA]2 | [A,C]>[B,D] [CE]>[=B,D] [CE]2 | %3
w: By~Ira~David~Sankey,~1902 * * * *|||
 [EG]2 [DG]2 [DF]2 | [B,D]>[CE] [DF]>[EG] [DF]2 | [Fd]2 [Ec]2 [EG]2 | %6
w: |||
 [=Ec]>[GB] [FA]>[F_A] [F=A]2 | [Ec]2 [DB]4 | [DB]>[Ec] [Fd]>[Ge] [Fd]2 | [FB]2 [Fd]2 [Fc]2 | %10
w: ||||
 [EA]>[DB] [Fc]>[F=B] [Fc]2 | [Fe]2 [Fe]2 [Fd]2 | [B,D]>[CE] [DF]>[EG] [DF]2 | [Fd]2 [Ec]2 [EG]2 | %14
w: ||||
 [=Ec]>[GB] [FA]>[F_A] [F=A]2 | [Ec]2 [DB]4- | [DB]4 z2 |] %17
w: |||
V:2
 [B,,F,]>[B,,F,] [B,,B,]>[B,,B,] [B,,B,]2 | [D,B,]2 [F,C]2 [F,C]2 | F,>F, F,>F, [F,A,]2 | %3
 [F,A,]2 [B,,B,]2 [B,,B,]2 | [B,,F,]>[B,,F,] [B,,B,]>[B,,B,] [B,,B,]2 | [B,,B,]2 [E,G,]2 [E,B,]2 | %6
 [C,C]>[C,C] [F,C]>[F,=B,] [F,C]2 | [F,A,]2 [B,,B,]4 | [B,,F,]>[B,,F,] [B,,B,]>[B,,B,] [B,,B,]2 | %9
 [D,B,]2 [F,B,]2 [F,A,]2 | [F,C]>[F,B,] [F,A,]>[F,_A,] [F,=A,]2 | [A,C]2 [A,C]2 B,2 | %12
 [B,,F,]>[B,,F,] [B,,B,]>[B,,B,] [B,,B,]2 | [B,,B,]2 [E,G,]2 [E,B,]2 | %14
 [C,C]>[C,C] [F,C]>[F,=B,] [F,C]2 | [F,A,]2 [B,,B,]4- | [B,,B,]4 z2 |] %17

